!!!!SEGMENT: pl-wnifc--6730-n--001-016_sowinski-wojciech--chants-religieux-de-la-pologne-op-93-chant-pour-le-jubile-sur-la-bonte-de-dieu-dieu-clement-dieu-de-paix.krn
!!!cenid: 18xx:4030
!!!COM: Sowiński, Wojciech
!!!COM-rismID: pe30008543
!!!CDT: ~1803-1880/03/05
!!!CNT:
!!!GTL: Chants religieux de la Pologne op. 93
!!!OTL: Chant pour le jubilé sur la bonté de Dieu/Dieu clemént Dieu de paix
!!!OMV: 016
!!!PDT: 1830
!!!AGN:
!!!SMS-siglum: PL-Wnifc
!!!SMS-shelfmark: 6730/n
!!!SMS-shelfwork: 001-016 G
!!!SMS-variant:
!!!SMS-altvar:
!!!NIFC-rismSourceID: 1001138221
!!!NIFC-rismChildID: 1001138238
!!!NIFC-islandoraID: nifc:213350
!!!URL-pdf-islandora: https://repozytorium.nifc.pl/islandora/object/nifc%3A213350/datastream/PDF/view
!!!URL-scan: https://polish.musicsources.pl/pl/lokalizacje/galeria/druki-muzyczne/16913 @EN{Scan on Polish Music Sources Website} @PL{Skany w portalu Dziedzictwo Muzyki Polskiej w otwartym dostępie}
!!!IIIF:
!!!ONB-nifc: UWAGA: str. 61-63
!!!AIN: 1 calto 2 organ 2 soprn
!!!key: B
**kern	**kern	**dynam	**kern	**text	**dynam	**kern	**text	**dynam	**kern	**text	**dynam
*part5	*part4	*part4	*part3	*part3	*part3	*part2	*part2	*part2	*part1	*part1	*part1
*staff5	*staff4	*	*staff3	*staff3	*	*staff2	*staff2	*	*staff1	*staff1	*
*I"Organo	*I"ORGUE.	*	*I"CONTRALTO.	*	*	*I"2.d DESSUS.	*	*	*I"1.er DESSUS.	*	*
*	*I'org	*	*I'Contra-A	*	*	*I'S 2	*	*	*I'S 1	*	*
*Iorgan	*Iorgan	*	*Icalto	*	*	*Isoprn	*	*	*Isoprn	*	*
*ICklav	*ICklav	*	*ICvox	*	*	*ICvox	*	*	*ICvox	*	*
*clefF4	*clefG2	*	*clefG2	*	*	*clefG2	*	*	*clefG2	*	*
*k[b-e-]	*k[b-e-]	*	*k[b-e-]	*	*	*k[b-e-]	*	*	*k[b-e-]	*	*
*B:	*B:	*	*B:	*	*	*B:	*	*	*B:	*	*
*M4/4	*M4/4	*	*M4/4	*	*	*M4/4	*	*	*M4/4	*	*
*met(c)	*met(c)	*	*met(c)	*	*	*met(c)	*	*	*met(c)	*	*
=1	=1	=1	=1	=1	=1	=1	=1	=1	=1	=1	=1
!	!	!	!	!	!	!	!	!	!LO:TX:a:B:t=Allo deciso.	!	!
!	!	!	!	!	!LO:DY:a	!	!	!LO:DY:a	!	!	!LO:DY:a
2BB-\ 2B-	4d/ 4b-	p	4d/	Dieu	p	4b-/	Dieu	p	4b-\	Dieu	p
.	2d/ 2b-	.	2d/	clé-	.	2f/	clé-	.	2b-\	clé-	.
2F\	.	.	.	.	.	.	.	.	.	.	.
.	4f/ 4a 4cc	.	4f/	-ment	.	4f/	-ment	.	4cc\	-ment	.
=2	=2	=2	=2	=2	=2	=2	=2	=2	=2	=2	=2
!	!	!	!	!	!	!	!	!	!	!	!LO:HP:t=cres.
2FF/ 2F	4f/ 4a 4cc	.	4f/	Dieu	.	4f/	Dieu	.	4cc\	Dieu	<
.	4f/ 4a 4cc 4ee-	.	4f/	de	.	4a/	de	.	4ee-\	de	.
2BB-\ 2B-	2f/ 2b- 2dd	.	2B-/	paix	.	2b-/	paix	.	2dd\	paix	.
=3	=3	=3	=3	=3	=3	=3	=3	=3	=3	=3	=3
2BBB-/ 2BB-	4f/ 4b- 4dd	sf	4B-/	d`a-	.	4b-/	d`a-	.	4dd\	d`a-	.
.	2f\ 2b- 2ff	.	2d/	-mour	.	2b-/	-mour	.	2ff^\	-mour	.
4DD/ 4D	.	.	.	.	.	.	.	.	.	.	.
4EE-/ 4E-	4g\ 4cc 4ee-	.	4e-/	et	.	4g/	et	.	4ee-\	et	.
=4	=4	=4	=4	=4	=4	=4	=4	=4	=4	=4	=4
!	!	!	!	!	!LO:DY:a	!	!	!LO:DY:a	!	!	!LO:DY:a
4FF/ 4F	4f/ 4b- 4dd	.	4f/	de	p	4b-/	de	p	4dd\	de	p
4FF/ 4F	4f/ 4a 4cc	.	4f/	mys-	.	4a/	mys-	.	4cc\	mys-	.
4FF/ 4F	4f/ 4cc 4ee-	.	4f/	tè-	.	4cc\	tè-	.	4ee-\	tè-	.
4BB-;\ 4B-	4f;</ 4b- 4dd	p	4B-;/	-re	.	4b-;\	-re	.	4dd;\	-re	.
=5	=5	=5	=5	=5	=5	=5	=5	=5	=5	=5	=5
!	!	!	!	!	!LO:DY:a	!	!	!LO:DY:a	!	!	!
2BB-\ 2B-	4d/ 4b-	.	4d/	Oh	mf	4f/	Oh	mf	4b-\	Oh	mf
.	2d/ 2b-	.	2B-/	qui	.	2f/	qui	.	2b-\	qui	.
2F\	.	.	.	.	.	.	.	.	.	.	.
.	4f/ 4a 4cc	.	4f/	pour	.	4a/	pour-	.	4cc\	pour-	.
!LO:LB:g=original	!LO:LB:g=original	!	!LO:LB:g=original	!	!	!LO:LB:g=original	!	!	!LO:LB:g=original	!	!
=6	=6	=6	=6	=6	=6	=6	=6	=6	=6	=6	=6
!	!	!	!	!	!	!	!	!	!	!	!LO:HP:t=cres.
2FF/ 2F	4f/ 4a 4cc	.	4f/	-ra	.	4a\	-ra	.	4cc\	-ra	<
.	4f/ 4a 4cc 4ee-	.	4f/	ja-	.	4cc\	ja-	.	4ee-\	ja-	.
2BB-\ 2B-	2f/ 2b- 2dd	.	2f/	-mais	.	2b-\	-mais	.	2dd\	-mais	.
=7	=7	=7	=7	=7	=7	=7	=7	=7	=7	=7	=7
4BB-\ 4B-	4b-\ 4dd	.	4b-/	vous	.	4b-\	vous	.	4dd\	vous	.
!	!	!	!	!	!LO:DY:a	!	!	!LO:DY:a	!	!	!LO:DY:a
2GG\ 2G	2g\ 2bn 2ff	sf	2g/	nom	f	2bn\	nom	f	2ff\	nom	f
4C\ 4c	4g\ 4cc 4ee-	.	4c/	mer	.	4cc\	mer	.	4ee-\	mer	.
=8	=8	=8	=8	=8	=8	=8	=8	=8	=8	=8	=8
4FF/ 4F	4b-X\ 4dd	.	4f/	sur	.	4b-X\	sur	.	4dd\	sur	.
4FF/ 4F	4a\ 4cc	.	4f/	la	.	4a\	la	.	4cc\	la	.
4FF/ 4F	4f\ 4a 4cc 4ee-	.	4f/	ter-	.	4cc\	ter-	.	4ee-\	ter-	.
4BB-;\ 4B-	4f;</ 4b- 4dd	p	4B-;/	-re	.	4b-;\	-re	.	4dd;\	-re	.
=9!|:	=9!|:	=9!|:	=9!|:	=9!|:	=9!|:	=9!|:	=9!|:	=9!|:	=9!|:	=9!|:	=9!|:
*M3/4	*M3/4	*	*M3/4	*	*	*M3/4	*	*	*M3/4	*	*
!	!LO:TX:b:i:t=animez.	!	!	!	!	!	!	!	!LO:TX:a:i:t=animez.	!	!LO:DY:a
4BB-\ 4B-	4f/ 4dd	f	4B-/	Chan-	.	4f/	Chan-	.	4dd\	Chan-	f
4BB-\ 4B-	4f/ 4dd	.	4B-/	-tons	.	4f/	-tons	.	4dd\	-tons	.
4BB-\ 4B-	4f/ 4dd	.	4B-/	chan-	.	4f/	chan-	.	4dd\	chan-	.
=10	=10	=10	=10	=10	=10	=10	=10	=10	=10	=10	=10
4.BB-\ 4.B-	4.f/ 4.dd	.	4.B-/	-tons	.	4.f/	-tons	.	4.dd\	-tons	.
8BB-\ 8F 8A	8e-/ 8cc	.	8e-/	en	.	8a/	en	.	8cc\	en	.
4BB-\ 4F 4B-	4d/ 4b-	.	4d/	choeur	.	4b-/	choeur	.	4b-\	choeur	.
!LO:PB:g=original	!LO:PB:g=original	!	!LO:PB:g=original	!	!	!LO:PB:g=original	!	!	!LO:PB:g=original	!	!
=11	=11	=11	=11	=11	=11	=11	=11	=11	=11	=11	=11
4FF/ 4F	4f/ 4a 4cc	.	4f/	la	.	4a/	la	.	4cc\	la	.
4FF/ 4F	4f/ 4a 4cc	.	4f/	bon-	.	4a/	bon-	.	4cc\	bon-	.
4FF/ 4F	4f/ 4a 4cc	.	4f/	-té	.	4a/	-té	.	4cc\	-té	.
=12	=12	=12	=12	=12	=12	=12	=12	=12	=12	=12	=12
4.BB-^/ 4.F	4.f/ 4.b- 4.dd	.	4.f/	du	.	4.b-/	du	.	4.dd^\	du	.
8FF/ 8F	8f/ 8a 8cc	.	8f/	seig-	.	8a/	seig-	.	8cc\	seig-	.
4FF/ 4F	4f/ 4a 4cc	.	4f/	-neur	.	4a/	-neur	.	4cc\	-neur	.
=13||	=13||	=13||	=13||	=13||	=13||	=13||	=13||	=13||	=13||	=13||	=13||
*M4/4	*M4/4	*	*M4/4	*	*	*M4/4	*	*	*M4/4	*	*
*met(c)	*met(c)	*	*met(c)	*	*	*met(c)	*	*	*met(c)	*	*
!	!	!	!	!	!	!	!	!	!LO:TX:a:B:t=a tempo.	!	!
4FF/ 4F	4f/ 4a 4cc	.	4f/	la	.	4a/	la	.	4cc\	la	.
2AAA/ 2AA	2f/ 2cc 2ee-	sf >	2f^/	bon-	.	2cc^\	bon-	.	2ee-\	bon-	.
4BBB-/ 4BB-	4f/ 4b- 4dd	]]	4f/	-té	.	4b-\	-té	.	4dd\	-té	.
=14	=14	=14	=14	=14	=14	=14	=14	=14	=14	=14	=14
4CC/ 4C	4e-/ 4a 4cc	p	4e-/	du	.	4a/	du	.	4cc\	du	.
!	!LO:TX:b:i:t=rall.	!	!	!	!	!	!	!	!	!	!
4DD/ 4D	8d/L 8g 8b-	.	(8d/L	seig-	.	(8g/L	seig-	.	(8b-/L	seig-	.
.	8c/J 8f#X 8a	.	8c/J)	.	.	8f#X/J)	.	.	8a/J)	.	.
2GG/ 2G	2B-/ 2g	.	2B-;/	-neur	.	2g;/	-neur	.	2g;/	-neur	.
=15:|!	=15:|!	=15:|!	=15:|!	=15:|!	=15:|!	=15:|!	=15:|!	=15:|!	=15:|!	=15:|!	=15:|!
*	*^	*	*	*	*	*	*	*	*	*	*
2.FF/ 2.F	4.a/	2.c\ 2.e-	.	1r	.	.	1r	.	.	1r	.	.
.	8f/	.	.	.	.	.	.	.	.	.	.	.
.	4g/	.	.	.	.	.	.	.	.	.	.	.
4FF;</ 4F	4a;/	4e-\	.	.	.	.	.	.	.	.	.	.
*	*v	*v	*	*	*	*	*	*	*	*	*	*
=16||	=16||	=16||	=16||	=16||	=16||	=16||	=16||	=16||	=16||	=16||	=16||
*k[b-e-]	*k[b-e-]	*	*k[b-e-]	*	*	*k[b-e-]	*	*	*k[b-e-]	*	*
*M4/4	*M4/4	*	*M4/4	*	*	*M4/4	*	*	*M4/4	*	*
*met(c)	*met(c)	*	*met(c)	*	*	*met(c)	*	*	*met(c)	*	*
*	*^	*	*	*	*	*	*	*	*	*	*
!	!	!	!	!	!	!	!	!	!	!LO:TX:a:t=2.e STROPHE.	!	!
4BB-\ 4B-	4b-/	4d\	fp	4d/	Il	.	4fn/	Il	.	4b-\	Il	.
4r	2b-/	2d\	.	2d/	se	.	2f/	se	.	2b-\	se	.
4FF/ 4F	.	.	.	.	.	.	.	.	.	.	.	.
4r	4a/ 4cc	4f\	.	4f/	pen-	.	4a/	pen-	.	4cc\	pen-	.
!LO:LB:g=original	!LO:LB:g=original	!LO:LB:g=original	!	!LO:LB:g=original	!	!	!LO:LB:g=original	!	!	!LO:LB:g=original	!	!
*	*v	*v	*	*	*	*	*	*	*	*	*	*
=17	=17	=17	=17	=17	=17	=17	=17	=17	=17	=17	=17
2FF/ 2F	4f/ 4a 4cc	.	4f/	-che	.	4a\	-che	.	4cc\	-che	.
.	4f/ 4a 4cc 4ee-	.	4f/	vers	.	4cc\	vers	.	4ee-\	vers	.
4BB-\ 4B-	2f/ 2b- 2dd	.	2B-/	nous	.	2b-\	nous	.	2dd\	nous	.
8F\L	.	.	.	.	.	.	.	.	.	.	.
8D\J	.	.	.	.	.	.	.	.	.	.	.
=18	=18	=18	=18	=18	=18	=18	=18	=18	=18	=18	=18
*	*^	*	*	*	*	*	*	*	*	*	*
2BBB-/ 2BB-	4b-/ 4dd	4f/	.	4f/	a	.	4b-\	a	.	4dd\	a	.
.	2b-^</ 2ff	2f/	sf	2d/	cette	.	2b-\	cette	.	2ff\	cette	.
4DD/ 4D	.	.	.	.	.	.	.	.	.	.	.	.
4EE-/ 4E-	(4cc/ 4ee-	8g\L	.	4e-/	heu-	.	(8g/L	heu-	.	4ee-\	heu-	.
.	.	8a\J	.	.	.	.	8a/J)	.	.	.	.	.
*	*v	*v	*	*	*	*	*	*	*	*	*	*
=19	=19	=19	=19	=19	=19	=19	=19	=19	=19	=19	=19
4FF/ 4F	4b-\ 4dd	.	4f/	-re	.	4b-/	-re	.	4dd\	-re	.
4FF/ 4F	4a\ 4cc	.	4f/	bé-	.	4a/	bé-	.	4cc\	bé-	.
4FF/ 4F	4f\ 4cc 4ee-	.	4f/	-ni-	.	4cc\	-ni-	.	4ee-\	-ni-	.
4BB-;\ 4B-	4f;\) 4b- 4dd	.	4B-;/	-e	.	4b-;\	-e	.	4dd;\	-e	.
=20	=20	=20	=20	=20	=20	=20	=20	=20	=20	=20	=20
!	!	!	!	!	!LO:DY:a	!	!	!LO:DY:a	!	!	!LO:DY:a
4BB-\ 4B-	4d/ 4b-	.	4d/	Et	p	4f/	Et	p	4b-\	Et	p
4r	2d/ 2b-	.	2d/	nous	.	2f/	nous	.	2b-\	nous	.
4F\	.	.	.	.	.	.	.	.	.	.	.
4r	4f/ 4a 4cc	.	4f/	re-	.	4a\	re-	.	4cc\	re-	.
=21	=21	=21	=21	=21	=21	=21	=21	=21	=21	=21	=21
2FF/ 2F	4f/ 4a 4cc	.	4f/	-vele	.	4a\	-vele	.	4cc\	-vele	.
.	4f\ 4a 4cc 4ee-	.	4f/	a	.	4cc\	a	.	4ee-\	a	.
4BB-\ 4B-	8dd\L	.	2B-/	tous	.	2b-\	tous	.	2dd\	tous	.
.	8b-\	.	.	.	.	.	.	.	.	.	.
8F\L	8f\	.	.	.	.	.	.	.	.	.	.
8D\J	8b-\J	.	.	.	.	.	.	.	.	.	.
=22	=22	=22	=22	=22	=22	=22	=22	=22	=22	=22	=22
4BB-/	4dd\	.	4b-/	le	.	4b-\	le	.	4dd\	le	.
2GG\ 2G	2g\ 2bn 2ff	sf	2g^</	che-	.	2bn^\	che-	.	2ff^\	che-	.
4C\ 4c	4g\ 4cc 4ee-	.	4c/	-min	.	4cc\	-min	.	4ee-\	-min	.
!LO:LB:g=original	!LO:LB:g=original	!	!LO:LB:g=original	!	!	!LO:LB:g=original	!	!	!LO:LB:g=original	!	!
=23	=23	=23	=23	=23	=23	=23	=23	=23	=23	=23	=23
4FF/ 4F	4f/ 4b-X 4dd	.	4f/	de	.	4b-\	de	.	4dd\	de	.
4FF/ 4F	4f/ 4a 4cc	.	4f/	la	.	4a\	la	.	4cc\	la	.
4FF/ 4F	4f/ 4cc 4ee-	.	4f/	vi-	.	4cc\	vi-	.	4ee-\	vi-	.
4BB-\ 4B-	4f;</ 4b- 4dd	.	4B-;/ 4f	-e	.	4b-;\	-e	.	4dd;\	-e	.
=24!|:	=24!|:	=24!|:	=24!|:	=24!|:	=24!|:	=24!|:	=24!|:	=24!|:	=24!|:	=24!|:	=24!|:
*M3/4	*M3/4	*	*M3/4	*	*	*M3/4	*	*	*M3/4	*	*
!	!LO:TX:b:i:t=animez.	!	!	!	!LO:DY:a	!	!	!LO:DY:a	!LO:TX:a:i:t=animez.	!	!LO:DY:a
4BB-\ 4B-	4f/ 4dd	f	4B-/	Chan-	f	4f/	Chan-	f	4dd\	Chan-	f
4BB-\ 4B-	4f/ 4dd	.	4B-/	-tons	.	4f/	-tons	.	4dd\	-tons	.
4BB-\ 4B-	4f/ 4dd	.	4B-/	chan-	.	4f/	chan-	.	4dd\	chan-	.
=25	=25	=25	=25	=25	=25	=25	=25	=25	=25	=25	=25
4.BB-\ 4.B-	4.f/ 4.dd	.	4.B-/	-tons	.	4.f/	-tons	.	4.dd\	-tons	.
8BB-\ 8A	8e-/ 8f 8cc	.	8e-/	en	.	8a/	en	.	8cc\	en	.
4BB-\ 4B-	4d/ 4f 4b-	.	4d/	choeur	.	4b-/	choeur	.	4b-\	choeur	.
=26	=26	=26	=26	=26	=26	=26	=26	=26	=26	=26	=26
4FF/ 4F	4f/ 4a 4cc	.	4f/	la	.	4a/	la	.	4cc\	la	.
4FF/ 4F	4f/ 4a 4cc	.	4f/	bon-	.	4a/	bon-	.	4cc\	bon-	.
4FF/ 4F	4f/ 4a 4cc	.	4f/	-té	.	4a/	-té	.	4cc\	-té	.
=27	=27	=27	=27	=27	=27	=27	=27	=27	=27	=27	=27
4.BB-/ 4.F	4.f/ 4.b- 4.dd	.	4.f/	du	.	4.b-/	du	.	4.dd^\	du	.
8FF/ 8F	8f/ 8a 8cc	.	8f/	seig-	.	8a/	seig-	.	8cc\	seig-	.
4FF/ 4F	4f/ 4a 4cc	.	4f/	-neur	.	4a/	-neur	.	4cc\	-neur	.
!LO:LB:g=original	!LO:LB:g=original	!	!	!LO:LB:g=original	!	!	!LO:LB:g=original	!	!LO:LB:g=original	!	!
=28||	=28||	=28||	=28||	=28||	=28||	=28||	=28||	=28||	=28||	=28||	=28||
*M4/4	*M4/4	*	*M4/4	*	*	*M4/4	*	*	*M4/4	*	*
*met(c)	*met(c)	*	*met(c)	*	*	*met(c)	*	*	*met(c)	*	*
!	!LO:TX:b:B:t=1.o tempo.	!	!	!	!	!	!	!	!LO:TX:a:B:t=1.o tempo.	!	!
4FF\ 4F	4f\ 4a 4cc	.	4f/	la	.	4a/	la	.	4cc\	la	.
2AAA/ 2AA	2f^\ 2cc 2ee-	.	2f/	bon-	.	2cc\	bon-	.	2ee-\	bon-	.
4BBB-/ 4BB-	4f\ 4b- 4dd	.	4f/	-té	.	4b-/	-té	.	4dd\	-té	.
=29	=29	=29	=29	=29	=29	=29	=29	=29	=29	=29	=29
!	!	!	!	!	!LO:DY:a	!	!	!LO:DY:a	!	!	!LO:DY:a
4CC/ 4C	4e-/ 4a 4cc	.	4e-/	du	p	4a/	du	p	4cc\	du	p
!	!LO:TX:b:i:t=rall.	!	!	!	!	!	!	!	!LO:TX:a:i:t=rall.	!	!
4DD/ 4D	8d/L 8g 8b-	.	8d/L	seig-	.	(8g/L	seig-	.	(8b-/L	seig-	.
.	8c/J 8f#X 8a	.	8c/J	.	.	8f#X/J)	.	.	8a/J)	.	.
2GG\ 2G	2B-/ 2g	p	2B-;/	-neur	.	2g;/	-neur	.	2g;/	-neur	.
=30:|!	=30:|!	=30:|!	=30:|!	=30:|!	=30:|!	=30:|!	=30:|!	=30:|!	=30:|!	=30:|!	=30:|!
!	!	!	!	!	!LO:DY:a	!	!	!LO:DY:a	!LO:TX:a:t=3.e STROPHE.	!	!LO:DY:a
2BB-\ 2B-	4d/ 4b-	p	4d/	O	p	4b-\	O	p	4b-\	O	p
.	2d/ 2b-	.	2d/	mon	.	2fn/	mon	.	2b-\	mon	.
2F\	.	.	.	.	.	.	.	.	.	.	.
!	!	!	!	!	!LO:DY:a	!	!	!LO:DY:a	!	!	!LO:DY:a
.	4f/ 4a 4cc	.	4f/	Dieu	<	4a/	Dieu	<	4cc\	Dieu	<
=31	=31	=31	=31	=31	=31	=31	=31	=31	=31	=31	=31
2FF/ 2F	4f\ 4a 4cc	.	4f/	qu`il	.	4a/	qu`il	.	4cc\	qu`il	.
.	4f\ 4a 4cc 4ee-	.	4f/	est	.	4cc\	est	.	4ee-\	est	.
2BB-\ 2B-	2f\ 2b- 2dd	.	2b-/	doux	[[	2b-\	doux	[[	2dd\	doux	[[
=32	=32	=32	=32	=32	=32	=32	=32	=32	=32	=32	=32
2BBB-/ 2BB-	4f\ 4b- 4dd	sf	4b-/	de	.	4b-\	de	.	4dd\	de	.
.	(2f\ 2b- 2ff	.	2d/	sui-	.	2b-^\	sui-	.	2ff^\	sui-	.
4DD/ 4D	.	.	.	.	.	.	.	.	.	.	.
4EE-/ 4E-	4g\ 4cc 4ee-	.	4e-/	-vre	.	4cc\	-vre	.	4ee-\	-vre	.
=33	=33	=33	=33	=33	=33	=33	=33	=33	=33	=33	=33
4FF\ 4F	4f\ 4b- 4dd	.	4f/	vo-	.	4b-\	vo-	.	4dd\	vo-	.
4FF\ 4F	4f\ 4a 4cc	.	4f/	-tre	.	4a\	-tre	.	4cc\	-tre	.
!	!	!	!	!	!	!	!	!	!	!	!LO:DY:a
4FF\ 4F	4f\ 4cc 4ee-	.	4f/	tra-	.	4cc\	tra-	.	4ee-\	tra-	p
4BB-;\ 4B-	4f;\) 4b- 4dd	p	4B-;/	-ce	.	4b-;\	-ce	.	4dd;\	-ce	.
!LO:LB:g=original	!LO:LB:g=original	!	!LO:LB:g=original	!	!	!LO:LB:g=original	!	!	!LO:LB:g=original	!	!
=34	=34	=34	=34	=34	=34	=34	=34	=34	=34	=34	=34
2BB-\ 2B-	4d/ 4b-	.	4d/	de	.	4b-/	de	.	4b-\	de	.
.	2d/ 2b-	<	2d/	vi-	.	2f/	vi-	.	2b-\	vi-	.
2F\	.	.	.	.	.	.	.	.	.	.	.
.	4f\ 4a 4cc	.	4f/	-vre à	.	4a/	-vre à	.	4cc\	-vre à	.
=35	=35	=35	=35	=35	=35	=35	=35	=35	=35	=35	=35
2FF\ 2F	4f\ 4a 4cc	.	4f/	vos	.	4a/	vos	.	4cc\	vos	.
.	4f\ 4a 4cc 4ee-	[	4f/	ge-	.	4cc\	ge-	.	4ee-\	ge-	.
2BB-\ 2B-	2f\ 2b- 2dd	.	2b-/	-noux	.	2b-\	-noux	.	2dd\	-noux	.
=36	=36	=36	=36	=36	=36	=36	=36	=36	=36	=36	=36
4BB-\ 4B-	4b-\ 4dd	.	4b-/	d`im-	.	4b-\	d`im-	.	4dd\	d`im-	.
2GG\ 2G	2g\ 2bn 2ff	sf	2d/	-plo-	.	2bn\	-plo-	.	2ff\	-plo-	.
4C\ 4c	4g\ 4cc 4ee-	.	4e-/	-rer	.	4cc\	-rer	.	4ee-\	-rer	.
=37	=37	=37	=37	=37	=37	=37	=37	=37	=37	=37	=37
4FF/ 4F	4b-X\ 4dd	.	4f/	vo-	.	4b-X\	vo-	.	4dd\	vo-	.
4FF/ 4F	4a\ 4cc	.	4f/	-tre	.	4a\	-tre	.	4cc\	-tre	.
4FF/ 4F	4f\ 4cc 4ee-	.	4f/	grà-	.	4cc\	grà-	.	4ee-\	grà-	.
4BB-;\ 4B-	4f;\ 4b- 4dd	p	4B-;/	-ce	.	4b-;\	-ce	.	4dd;\	-ce	.
=38!|:	=38!|:	=38!|:	=38!|:	=38!|:	=38!|:	=38!|:	=38!|:	=38!|:	=38!|:	=38!|:	=38!|:
*M3/4	*M3/4	*	*M3/4	*	*	*M3/4	*	*	*M3/4	*	*
!	!LO:TX:b:i:t=animez.	!	!	!	!	!	!	!	!LO:TX:a:i:t=animez.	!	!
4BB-\ 4B-	4f\ 4dd	.	4B-/	Chan-	.	4f/	Chan-	.	4dd\	Chan-	.
4BB-\ 4B-	4f\ 4dd	.	4B-/	-tons	.	4f/	-tons	.	4dd\	-tons	.
4BB-\ 4B-	4f\ 4dd	.	4B-/	chan-	.	4f/	chan-	.	4dd\	chan-	.
!LO:LB:g=original	!LO:LB:g=original	!	!LO:LB:g=original	!	!	!LO:LB:g=original	!	!	!LO:LB:g=original	!	!
=39	=39	=39	=39	=39	=39	=39	=39	=39	=39	=39	=39
4.BB-\ 4.B-	4.f\ 4.dd	.	4.B-/	-tons	.	4.f/	-tons	.	4.dd\	-tons	.
8BB-\ 8F 8B-	8e-/ 8cc	.	8e-/	en	.	8a/	en	.	8cc\	en	.
4BB-\ 4F 4B-	4d/ 4b-	.	4d/	choeur	.	4b-/	choeur	.	4b-\	choeur	.
=40	=40	=40	=40	=40	=40	=40	=40	=40	=40	=40	=40
4FF/ 4F	4f\ 4a 4cc	.	4f/	la	.	4a/	la	.	4cc\	la	.
4FF/ 4F	4f\ 4a 4cc	.	4f/	bon-	.	4a/	bon-	.	4cc\	bon-	.
4FF/ 4F	4f\ 4a 4cc	.	4f/	-té	.	4a/	-té	.	4cc\	-té	.
=41	=41	=41	=41	=41	=41	=41	=41	=41	=41	=41	=41
4.BB-/ 4.F	4.f\ 4.b- 4.dd	.	4.f/	du	.	4.b-/	du	.	4.dd\	du	.
8FF/ 8F	8f\ 8a 8cc	.	8f/	seig-	.	8a/	seig-	.	8cc\	seig-	.
4FF/ 4F	4f\ 4a 4cc	.	4f/	-neur	.	4a/	-neur	.	4cc\	-neur	.
=42	=42	=42	=42	=42	=42	=42	=42	=42	=42	=42	=42
*M4/4	*M4/4	*	*M4/4	*	*	*M4/4	*	*	*M4/4	*	*
*met(c)	*met(c)	*	*met(c)	*	*	*met(c)	*	*	*met(c)	*	*
!	!	!	!	!	!	!	!	!	!LO:TX:a:B:t=tempo	!	!LO:DY:a
4FF/ 4F	4f\ 4a 4cc	sf	4f/	la	.	4a/	la	.	4cc\	la	mf
2AAA/ 2AA	2f\ 2cc 2ee-	>	2f/	bon-	.	2cc\	bon-	.	2ee-\	bon-	.
4BBB-/ 4BB-	4f\ 4b- 4dd	]]	4f/	-té	.	4b-/	-té	.	4dd\	-té	.
=43	=43	=43	=43	=43	=43	=43	=43	=43	=43	=43	=43
!	!	!	!LO:TX:a:i:t=rall.	!	!	!LO:TX:a:i:t=rall.	!	!	!LO:TX:a:i:t=rall.	!	!
4CC/ 4C	4e-/ 4a 4cc	.	4e-/	du	.	4a/	du	.	4cc\	du	.
4DD/ 4D	8d/L 8g 8b-	.	8d/L	seig-	.	8g/L	seig-	.	8b-\L	seig-	.
.	8c/J 8f#X 8a	.	8c/J	.	.	8f#X/J	.	.	8a\J	.	.
!	!	!	!	!	!	!	!	!	!	!	!LO:DY:a
2GG;\ 2G	2B-;/ 2g	.	2B-;/	-neur	.	2g;/	-neur	.	2b-;\	-neur	p
=:|!	=:|!	=:|!	=:|!	=:|!	=:|!	=:|!	=:|!	=:|!	=:|!	=:|!	=:|!
*-	*-	*-	*-	*-	*-	*-	*-	*-	*-	*-	*-
!!!RDF**kern: > = above
!!!RDF**kern: < = below
!!!system-decoration: [(s1,s2,s3)][(s4,s5)]
!!!ENC: Filip Voros
!!!END: 2022-08-09
!!!ENC: Julita Ruszuk
!!!END: 2022-09-05
!!!YEC: Copyright 2022 Narodowy Instytut Fryderyka Chopina (https://polishscores.org)
!!!YEM: License CC-BY-4.0 (https://creativecommons.org/licenses/by/4.0)
